; HEADER_BLOCK_START
; generated by Creality_Print V5.1.1.9490 on 2024-11-11 at 12:52:14
; total layer number: 130
; filament_density: 1.27
; filament_diameter: 1.75
; max_z_height: 20.00
; HEADER_BLOCK_END

; MINX = 85.88
; MINY = 85.88
; MINZ = 0.00
; MAXX = 134.12
; MAXY = 134.12
; MAXZ = 20.00

; THUMBNAIL_BLOCK_START

;
; THUMBNAIL_BLOCK_END

; THUMBNAIL_BLOCK_START

;
; THUMBNAIL_BLOCK_END

; external perimeters extrusion width = 0.42mm
; perimeters extrusion width = 0.45mm
; infill extrusion width = 0.45mm
; solid infill extrusion width = 0.42mm
; top infill extrusion width = 0.42mm
; support material extrusion width = 0.42mm
; first layer extrusion width = 0.50mm

; EXECUTABLE_BLOCK_START
EXCLUDE_OBJECT_DEFINE NAME=Watch_Holder2.stl_id_0_copy_0 CENTER=109.999,110 POLYGON=[[85.8774,109.623],[85.8826,109.374],[85.9262,108.421],[85.9441,108.169],[86.0349,107.223],[86.0658,106.968],[86.2031,106.032],[86.2473,105.775],[86.4304,104.851],[86.4882,104.593],[86.7164,103.682],[86.788,103.424],[87.0603,102.529],[87.1458,102.272],[87.4612,101.395],[87.5608,101.139],[87.9181,100.283],[88.0319,100.028],[88.4299,99.194],[88.558,98.942],[88.9953,98.1322],[89.1377,97.8838],[89.613,97.1],[89.7696,96.8559],[90.2814,96.0999],[90.4521,95.8608],[90.9987,95.1343],[91.1835,94.9011],[91.7633,94.2056],[91.9619,93.9792],[92.4995,93.3937],[92.5733,93.3163],[92.7855,93.0974],[93.3372,92.5533],[93.4266,92.4684],[93.6522,92.2578],[94.2151,91.7552],[94.321,91.6641],[94.5597,91.4627],[95.1313,91.0012],[95.2545,90.9054],[95.5059,90.7139],[96.0834,90.2931],[96.2246,90.1941],[96.4883,90.0133],[97.0691,89.6327],[97.229,89.5321],[97.5045,89.3627],[98.0862,89.0216],[98.2651,88.921],[98.552,88.7638],[99.1321,88.4612],[99.3303,88.3623],[99.6281,88.218],[100.204,87.9529],[100.422,87.8574],[100.73,87.7267],[101.3,87.498],[101.538,87.4075],[101.855,87.2911],[102.417,87.0975],[102.674,87.0138],[103.001,86.9123],[103.552,86.7523],[103.829,86.6773],[104.164,86.5912],[104.703,86.4635],[104.999,86.3987],[105.342,86.3288],[105.867,86.2315],[106.182,86.1788],[106.531,86.1255],[107.04,86.0571],[107.374,86.0182],[107.729,85.9819],[108.221,85.9405],[108.573,85.9171],[108.933,85.8985],[109.406,85.8822],[109.775,85.8759],[110.139,85.8753],[110.593,85.8822],[110.978,85.8947],[111.346,85.9125],[111.778,85.9405],[112.178,85.9735],[112.548,86.0099],[112.959,86.0571],[113.373,86.1119],[113.744,86.1673],[114.132,86.2315],[114.56,86.3098],[114.931,86.3844],[115.296,86.4635],[115.735,86.5665],[116.106,86.6605],[116.447,86.7523],[116.896,86.8816],[117.265,86.995],[117.582,87.0975],[118.04,87.254],[118.406,87.3871],[118.699,87.498],[119.163,87.6831],[119.527,87.8357],[119.795,87.9529],[120.264,88.1676],[120.623,88.3398],[120.867,88.4612],[121.34,88.7064],[121.693,88.8981],[121.913,89.0216],[122.387,89.2981],[122.733,89.5091],[122.93,89.6327],[123.404,89.9413],[123.742,90.1714],[123.916,90.2931],[124.387,90.6344],[124.716,90.8833],[124.868,91.0012],[125.334,91.3756],[125.653,91.6431],[125.784,91.7552],[126.243,92.1632],[126.552,92.4487],[126.662,92.5533],[127.112,92.995],[127.408,93.2982],[127.499,93.3937],[127.939,93.8692],[128.222,94.1896],[128.72,94.7834],[128.989,95.1205],[129.456,95.7355],[129.71,96.0886],[130.143,96.723],[130.381,97.0915],[130.779,97.7436],[131,98.1267],[131.364,98.7946],[131.568,99.1916],[131.896,99.8735],[132.081,100.283],[132.374,100.978],[132.54,101.4],[132.796,102.104],[132.941,102.537],[133.161,103.25],[133.286,103.694],[133.469,104.413],[133.572,104.866],[133.718,105.59],[133.799,106.051],[133.908,106.778],[133.959,107.18],[134.039,107.973],[134.066,108.314],[134.11,109.174],[134.118,109.453],[134.122,110.377],[134.117,110.593],[134.073,111.579],[134.062,111.731],[133.964,112.777],[133.954,112.866],[133.796,113.968],[133.792,113.994],[133.569,115.149],[133.562,115.179],[133.283,116.318],[133.274,116.35],[132.939,117.47],[132.927,117.506],[132.538,118.604],[132.523,118.643],[132.081,119.717],[132.063,119.758],[131.569,120.806],[131.547,120.849],[131.004,121.868],[130.978,121.913],[130.386,122.9],[130.356,122.947],[129.718,123.9],[129.683,123.949],[129,124.866],[128.961,124.915],[128.236,125.794],[128.192,125.845],[127.499,126.606],[127.426,126.683],[127.377,126.735],[126.662,127.446],[126.572,127.531],[126.518,127.583],[125.784,128.245],[125.678,128.336],[125.618,128.386],[124.868,128.999],[124.745,129.094],[124.68,129.144],[123.916,129.707],[123.774,129.806],[123.704,129.854],[122.93,130.367],[122.77,130.468],[122.694,130.515],[121.913,130.978],[121.734,131.079],[121.652,131.124],[120.867,131.539],[120.669,131.637],[120.582,131.68],[119.795,132.047],[119.577,132.142],[119.484,132.182],[118.699,132.502],[118.461,132.592],[118.363,132.629],[117.582,132.902],[117.325,132.986],[117.222,133.019],[116.447,133.247],[116.17,133.322],[116.062,133.351],[115.296,133.536],[114.999,133.601],[114.887,133.625],[114.132,133.768],[113.817,133.821],[113.699,133.84],[112.959,133.943],[112.625,133.982],[112.503,133.995],[111.778,134.059],[111.426,134.083],[111.3,134.09],[110.593,134.118],[110.224,134.124],[110.094,134.125],[109.406,134.118],[109.021,134.105],[108.887,134.099],[108.221,134.059],[107.821,134.026],[107.684,134.013],[107.04,133.943],[106.626,133.888],[106.486,133.868],[105.867,133.768],[105.439,133.69],[105.297,133.662],[104.703,133.536],[104.264,133.433],[104.12,133.397],[103.552,133.247],[103.103,133.118],[102.957,133.074],[102.417,132.902],[101.959,132.746],[101.812,132.693],[101.3,132.502],[100.836,132.317],[100.688,132.255],[100.204,132.047],[99.7347,131.832],[99.5867,131.762],[99.1321,131.539],[98.6592,131.293],[98.5117,131.214],[98.0862,130.978],[97.6119,130.702],[97.4653,130.613],[97.0691,130.367],[96.5954,130.058],[96.4503,129.961],[96.0834,129.707],[95.6122,129.365],[95.4692,129.258],[95.1313,128.999],[94.6648,128.624],[94.5245,128.508],[94.2151,128.245],[93.7555,127.837],[93.6185,127.711],[93.3372,127.446],[92.8866,127.005],[92.7534,126.87],[92.4995,126.606],[92.0603,126.131],[91.9315,125.986],[91.2785,125.216],[91.1548,125.063],[90.5433,124.264],[90.4252,124.102],[89.8565,123.277],[89.7446,123.105],[89.2197,122.256],[89.1147,122.076],[88.6346,121.205],[88.537,121.017],[88.1027,120.126],[88.013,119.93],[87.6251,119.022],[87.544,118.818],[87.2032,117.896],[87.1311,117.685],[86.838,116.75],[86.7755,116.532],[86.5303,115.587],[86.478,115.362],[86.281,114.41],[86.2393,114.179],[86.0907,113.222],[86.06,112.986],[85.9598,112.026],[85.9407,111.785],[85.8886,110.826],[85.8815,110.58],[85.8774,109.623]]
M73 P0 R11
M106 S0
M106 P2 S0
;TYPE:Custom
M140 S0
M104 S0 
START_PRINT EXTRUDER_TEMP=220 BED_TEMP=50
M141 S35;set chamber_temperature
G90
G21
M83 ; use relative distances for extrusion
; filament start gcode
M106 S0
M106 P2 S0
;LAYER_CHANGE
;Z:0.2
;HEIGHT:0.2
;BEFORE_LAYER_CHANGE
;0.2
G92 E0

G1 E-.5 F2400
;AFTER_LAYER_CHANGE
;0.2
;_SET_FAN_SPEED_CHANGING_LAYER
SET_VELOCITY_LIMIT ACCEL=1000 ACCEL_TO_DECEL=1000
SET_VELOCITY_LIMIT SQUARE_CORNER_VELOCITY=20
; printing object Watch_Holder2.stl id:0 copy 0
EXCLUDE_OBJECT_START NAME=Watch_Holder2.stl_id_0_copy_0
G1 X111.282 Y87.762 F30000
G1 Z.4
G1 Z.2
G1 E.5 F2400
;TYPE:Support
;WIDTH:0.5
G1 F3000
G3 X128.467 Y97.553 I-1.419 J22.468 E.76271
G1 X122.446 Y97.553 E.22425
G1 X122.446 Y94.676 E.10716
G1 X116.692 Y94.676 E.21432
G1 X116.692 Y91.799 E.10716
G1 X103.307 Y91.799 E.49856
G1 X103.307 Y94.676 E.10716
G1 X97.553 Y94.676 E.21432
G1 X97.553 Y97.553 E.10716
G1 X91.528 Y97.553 E.22439
G3 X111.213 Y87.76 I18.492 J12.489 E.85629
G1 E-.35 F2400
;WIPE_START
G1 F3000
G1 X110.213 Y87.781 E-.15
;WIPE_END
G1 X104.501 Y92.842 Z.6 F30000
G1 X102.895 Y94.265 Z.6
G1 Z.2
G1 E.5 F2400
G1 F3000
G1 X97.141 Y94.265 E.21432
G1 X97.141 Y97.142 E.10716
G1 X92.325 Y97.142 E.17938
G3 X127.678 Y97.142 I17.676 J12.917 E1.53257
G1 X122.858 Y97.142 E.17953
G1 X122.858 Y94.265 E.10716
G1 X117.104 Y94.265 E.21432
G1 X117.104 Y91.388 E.10716
G1 X102.895 Y91.388 E.52921
G1 X102.895 Y94.265 E.10716
G1 X102.387 Y93.757 F30000
G1 F3000
G1 X96.633 Y93.757 E.21432
G1 X96.633 Y96.634 E.10716
G1 X93.322 Y96.634 E.12335
G3 X96.144 Y93.757 I25.294 J21.988 E.1502
G1 X96.144 Y93.757 E0
G3 X123.366 Y93.345 I13.86 J16.262 E1.09939
G1 X123.366 Y93.344 E.00004
G3 X123.495 Y93.454 I-.532 J.759 E.00632
G3 X126.664 Y96.634 I-18.659 J21.766 E.1674
G1 X123.366 Y96.634 E.12287
G1 X123.366 Y93.757 E.10716
G1 X117.612 Y93.757 E.21432
G1 X117.612 Y90.88 E.10716
G1 X102.387 Y90.88 E.56704
G1 X102.387 Y93.757 E.10716
G1 X96.125 Y94.446 F30000
G1 F3000
G1 X96.125 Y96.126 E.06258
G1 X94.416 Y96.126 E.06365
M73 P1 R11
G3 X96.125 Y94.446 I17.113 J15.696 E.08931
G1 X98.141 Y93.249 F30000
G1 F3000
G1 X98.043 Y92.924 E.01263
G3 X101.88 Y90.793 I15.41 J23.224 E.16363
G1 X101.88 Y93.249 E.09146
G1 X98.141 Y93.249 E.13923
G1 X99.899 Y92.741 F30000
G1 F3000
G1 X99.807 Y92.405 E.01297
G3 X101.372 Y91.589 I10.654 J18.513 E.06578
G1 X101.372 Y92.741 E.04292
G1 X99.899 Y92.741 E.05486
G1 X104.271 Y90.372 F30000
G1 F3000
G1 X104.216 Y89.978 E.0148
G3 X115.791 Y89.981 I5.784 J20.566 E.4366
G1 X115.734 Y90.372 E.01473
G1 X104.271 Y90.372 E.42697
G1 X118.119 Y90.806 F30000
G1 F3000
G3 X121.953 Y92.927 I-8.195 J19.337 E.16348
G1 X121.853 Y93.249 E.01256
G1 X118.119 Y93.249 E.13907
G1 X118.119 Y90.806 E.09099
G1 X118.627 Y91.588 F30000
G1 F3000
G3 X120.19 Y92.396 I-7.036 J15.528 E.06557
G1 X120.103 Y92.741 E.01325
G1 X118.627 Y92.741 E.05496
G1 X118.627 Y91.588 E.04294
G1 X123.874 Y94.439 F30000
G1 F3000
G3 X125.569 Y96.126 I-15.474 J17.255 E.08913
G1 X123.874 Y96.126 E.06317
G1 X123.874 Y94.439 E.06282
G1 E-.35 F2400
;WIPE_START
G1 F3000
G1 X123.874 Y95.439 E-.15
;WIPE_END
G1 X121.561 Y88.166 Z.6 F30000
G1 X120.569 Y85.045 Z.6
G1 Z.2
G1 E.5 F2400
G1 F3000
G1 X126.323 Y85.045 E.21432
G1 X126.323 Y87.922 E.10716
G1 X129.2 Y87.922 E.10716
G1 X129.2 Y90.799 E.10716
G1 X132.078 Y90.799 E.10716
G1 X132.078 Y97.553 E.25156
G1 X131.065 Y97.553 E.03771
G2 X88.93 Y97.553 I-21.067 J12.436 E1.8908
G1 X87.921 Y97.553 E.03757
G1 X87.921 Y90.799 E.25156
G1 X90.799 Y90.799 E.10716
G1 X90.799 Y87.922 E.10716
G1 X93.676 Y87.922 E.10716
G1 X93.676 Y85.045 E.10716
G1 X99.43 Y85.045 E.21432
G1 X99.43 Y82.168 E.10716
G1 X120.569 Y82.168 E.78736
G1 X120.569 Y84.976 E.10461
G1 X131.298 Y97.142 F30000
G1 F3000
G2 X88.7 Y97.142 I-21.299 J12.844 E1.90493
G1 X88.333 Y97.142 E.01368
G1 X88.333 Y91.21 E.22092
G1 X91.21 Y91.21 E.10716
G1 X91.21 Y88.333 E.10716
G1 X94.087 Y88.333 E.10716
G1 X94.087 Y85.456 E.10716
G1 X99.841 Y85.456 E.21432
M73 P2 R11
G1 X99.841 Y82.579 E.10716
G1 X120.158 Y82.579 E.75672
G1 X120.158 Y85.456 E.10716
G1 X125.912 Y85.456 E.21432
G1 X125.912 Y88.333 E.10716
G1 X128.789 Y88.333 E.10716
G1 X128.789 Y91.21 E.10716
G1 X131.666 Y91.21 E.10716
G1 X131.666 Y97.142 E.22092
G1 X131.298 Y97.142 E.01371
G1 X130.839 Y95.488 F30000
G1 F3000
G2 X128.281 Y92.376 I-22.889 J16.209 E.15018
G1 X128.281 Y92.376 E0
G2 X100.349 Y86.514 I-18.288 J17.659 E1.12868
G1 X100.243 Y86.555 E.00422
G2 X89.162 Y95.497 I9.708 J23.367 E.53761
G1 X88.841 Y95.397 E.01255
G1 X88.841 Y91.718 E.13703
G1 X91.718 Y91.718 E.10716
G1 X91.718 Y88.841 E.10716
G1 X94.595 Y88.841 E.10716
G1 X94.595 Y85.964 E.10716
G1 X100.349 Y85.964 E.21432
G1 X100.349 Y83.087 E.10716
G1 X119.65 Y83.087 E.71888
G1 X119.65 Y85.964 E.10716
G1 X125.404 Y85.964 E.21432
G1 X125.404 Y88.841 E.10716
G1 X128.281 Y88.841 E.10716
G1 X128.281 Y91.718 E.10716
G1 X131.158 Y91.718 E.10716
G1 X131.158 Y95.387 E.13665
G1 X130.839 Y95.488 E.01246
G1 E-.35 F2400
;WIPE_START
G1 F3000
G1 X131.158 Y95.387 E-.05017
G1 X131.158 Y94.722 E-.09983
;WIPE_END
G1 X123.541 Y94.246 Z.6 F30000
G1 X91.167 Y92.226 Z.6
G1 Z.2
G1 E.5 F2400
G1 F3000
G2 X89.659 Y93.969 I20.892 J19.601 E.08586
G1 X89.349 Y93.864 E.01222
G1 X89.349 Y92.226 E.061
G1 X91.167 Y92.226 E.06775
G1 X92.226 Y91.146 F30000
G1 F3000
G1 X92.226 Y89.349 E.06691
G1 X93.872 Y89.349 E.06133
G1 X93.979 Y89.656 E.0121
G2 X92.226 Y91.146 I14.349 J18.667 E.08573
G1 X95.103 Y88.819 F30000
G1 F3000
G1 X95.103 Y86.472 E.08741
G1 X98.367 Y86.472 E.12157
G1 X98.451 Y86.823 E.01343
G2 X95.103 Y88.819 I10.404 J21.256 E.14534
G1 X95.611 Y87.862 F30000
G1 F3000
G1 X95.611 Y86.98 E.03287
G1 X96.383 Y86.98 E.02878
G1 X96.477 Y87.314 E.01292
G2 X95.611 Y87.862 I10.513 J17.561 E.03818
G1 X100.857 Y85.772 F30000
G1 F3000
G1 X100.857 Y83.595 E.08109
G1 X119.142 Y83.595 E.68105
G1 X119.142 Y85.761 E.08067
G2 X100.857 Y85.772 I-9.128 J24.332 E.69595
G1 X116.847 Y84.496 F30000
G1 F3000
G1 X116.902 Y84.103 E.01479
G1 X118.634 Y84.103 E.06451
G1 X118.634 Y85.05 E.03527
G2 X116.847 Y84.496 I-6.669 J18.359 E.06973
G1 X103.159 Y84.499 F30000
G1 F3000
G2 X101.365 Y85.047 I4.694 J18.554 E.0699
G1 X101.365 Y84.103 E.03518
G1 X103.105 Y84.103 E.06482
G1 X103.159 Y84.499 E.01488
G1 X121.552 Y86.82 F30000
M73 P3 R11
G1 F3000
G1 X121.638 Y86.472 E.01335
G1 X124.896 Y86.472 E.12137
G1 X124.896 Y88.804 E.08684
G2 X121.552 Y86.82 I-16.546 J24.086 E.14492
G1 X123.513 Y87.317 F30000
G1 F3000
G1 X123.604 Y86.98 E.01301
G1 X124.388 Y86.98 E.0292
G1 X124.388 Y87.863 E.03291
G2 X123.513 Y87.317 I-6.298 J9.119 E.03845
G1 X125.646 Y89.349 F30000
G1 F3000
G1 X127.773 Y89.349 E.07925
G1 X127.773 Y91.157 E.06735
G2 X125.646 Y89.349 I-19.427 J20.702 E.10405
G1 X128.836 Y92.226 F30000
G1 F3000
G1 X130.65 Y92.226 E.06758
G1 X130.65 Y94.341 E.07878
G2 X128.836 Y92.226 I-22.458 J17.43 E.10383
G1 E-.35 F2400
;WIPE_START
G1 F3000
G1 X129.487 Y92.985 E-.15
;WIPE_END
G1 X130.718 Y100.518 Z.6 F30000
G1 X131.104 Y102.873 Z.6
G1 Z.2
G1 E.5 F2400
G1 F3000
G3 X131.981 Y106.367 I-24.458 J7.998 E.13427
G2 X133.062 Y106.382 I.56 J-1.384 E.04123
G3 X133.946 Y106.413 I.279 J4.628 E.03297
G1 X134.175 Y106.155 E.01286
G2 X133.231 Y102.307 I-24.12 J3.879 E.14771
G1 X137.832 Y102.307 E.17134
G1 X137.832 Y117.693 E.57304
G1 X133.258 Y117.619 E.17036
G2 X134.168 Y113.891 I-26.871 J-8.531 E.14303
G2 X133.403 Y113.671 I-.467 J.183 E.03424
G3 X132.219 Y113.514 I-.012 J-4.476 E.04464
G1 X131.974 Y113.675 E.01091
G3 X130.896 Y117.693 I-30.701 J-6.083 E.15506
G1 X128.201 Y117.693 E.10039
G1 X128.201 Y102.307 E.57304
G1 X130.896 Y102.307 E.10039
G1 X131.08 Y102.809 E.0199
G1 X128.612 Y102.719 F30000
G1 F3000
G1 X130.609 Y102.719 E.07437
G3 X131.611 Y106.616 I-31.817 J10.259 E.14997
G2 X132.792 Y106.827 I.695 J-.477 E.04974
G3 X134.118 Y106.838 I.626 J4.691 E.04956
G1 X134.618 Y106.277 E.02798
G2 X133.79 Y102.719 I-28.039 J4.65 E.13615
G1 X137.42 Y102.719 E.13523
G1 X137.42 Y117.281 E.5424
G1 X133.789 Y117.281 E.13524
G2 X134.61 Y113.77 I-27.171 J-8.206 E.1344
G2 X133.394 Y113.259 I-.804 J.211 E.05678
G3 X132.137 Y113.076 I.021 J-4.548 E.04744
G1 X131.604 Y113.425 E.02373
G3 X130.609 Y117.281 I-33.545 J-6.6 E.14843
G1 X128.612 Y117.281 E.07439
G1 X128.612 Y102.719 E.5424
G1 X129.12 Y103.227 F30000
G1 F3000
G1 X130.251 Y103.227 E.04212
G3 X131.154 Y106.924 I-25.053 J8.083 E.14188
G1 X132.042 Y107.507 E.03956
G3 X134.331 Y107.363 I1.467 J5.032 E.08614
G1 X135.164 Y106.427 E.04664
G2 X134.478 Y103.227 I-32.595 J5.309 E.12195
G1 X136.912 Y103.227 E.09067
G1 X136.912 Y116.773 E.50456
G1 X134.477 Y116.773 E.09072
G2 X135.157 Y113.621 I-31.474 J-8.438 E.12018
G1 X134.326 Y112.683 E.04664
G3 X132.037 Y112.535 I-.813 J-5.178 E.08614
G1 X131.149 Y113.116 E.03955
G3 X130.249 Y116.773 I-25.721 J-4.384 E.14039
G1 X129.12 Y116.773 E.04207
G1 X129.12 Y103.227 E.50456
G1 X129.628 Y104.249 F30000
G1 F3000
G1 X130.028 Y104.199 E.01503
G3 X130.698 Y107.231 I-28.822 J7.955 E.11571
G1 X131.94 Y108.048 E.05538
G3 X134.544 Y107.887 I1.633 J5.273 E.0981
G1 X135.71 Y106.577 E.06531
G2 X135.125 Y103.735 I-29.225 J4.529 E.10814
G1 X136.405 Y103.735 E.04766
G1 X136.405 Y116.266 E.46673
G1 X135.125 Y116.266 E.04767
G2 X135.703 Y113.471 I-28.211 J-7.295 E.10633
G1 X134.54 Y112.159 E.0653
G3 X131.936 Y111.993 I-.961 J-5.436 E.0981
G1 X130.693 Y112.808 E.05538
G3 X130.028 Y115.799 I-29.337 J-4.951 E.11417
G1 X129.628 Y115.748 E.01502
G1 X129.628 Y104.249 E.42831
G1 X130.136 Y107.469 F30000
M73 P4 R11
G1 F3000
G1 X131.839 Y108.589 E.07592
G3 X134.757 Y108.412 I1.802 J5.564 E.11007
